X:1
T:What Will It Be?
T:Charles Hutchinson Gabriel, 1909
T:What Will It Be?
T:Public Domain
T:Public Domain
T:Public Domain
C:Charles Hutchinson Gabriel, 1909
Z:Public Domain
%%score ( 1 2 ) ( 3 4 )
L:1/8
M:4/4
K:G
V:1 treble 
V:2 treble 
V:3 bass 
V:4 bass 
V:1
 [B,D][B,D] | [B,G]>[B,G] [B,G][CA] [DB][DB][DB][^DA] | [EG]>[FA] [EG][CE] [CE][B,D]B,D | %3
w: 1.~If to-|day, a- mid the storms of life that|wild- ly beat a- round us, We the|
w: 2.~If His|love so free- ly shed a- broad can|fill our hearts with glo- ry, If the|
w: 3.~If our|faith in Him can fill our hearts with|joy to o- ver- flow- ing, And the|
w: 4.~If when|those we love are tak- en from us|we can still a- dore Him, And to|
 [B,G][B,G][DG][DA] [DB][DB][Dc][DB] | [DA]6 [CD][CD] | [B,G]>[B,G] [DG][DA] [DB][DB][DB][^DA] | %6
w: of our bless- èd Lord can see, And|re- joice to|hear Him call- ing, as when first the|
w: song of earth is: “Come to Me”; If|such bless- ing|it af- fords us just to tell the|
w: seen, to us so dear can be; If|we love Him|while in tears and pain for har- vest|
w: that dark hour for com- fort flee; As|we clasp their|hands on yon- der shore, to cast our|
 [EG]>[EA] [EG][CE] [CE][B,D][DG][GB] | [Gd]2 [Gd]>[Ad] [Gd] G3 | [GB]2 [FA]>[DA] [DG]4 || %9
w: Shep- herd found us, When we stand in|His pre- sence, what will|be? * * *|
w: pre- cious sto- ry, When we stand in|His pre- sence, what will|be? What will it|
w: we are sow- ing, When we stand in|His pre- sence, what will|be? * * *|
w: crowns be- fore Him, When we stand in|His pre- sence, what will|be? * * *|
"^Refrain" [Gd]2 [GB]>[GB] (G2 =F2) | [EG]2 [CE]>[CE] [EG]2 [DF][CE] | %11
w: ||
w: be? What will it *|With the Lord to reign thro’|
w: ||
w: ||
 [B,D][B,D][DG][DA] [DB][DB][Dc][DB] | [DA]6 z2 | [Gd][DB][DA][DG] [=FB]4 | [EA][EG][CE][CG] D2 | %15
w: ||||
w: all e- ter- ni- ty! On that bliss-|ful|shore, saved for- ev- er-|more, As we stand in|
w: ||||
w: ||||
 [DG][GB] | [Gd]2 [Gd]>[Ad] [Gd] G3 | [GB]2 [FA]>[DA] [DG]4 |] %18
w: |||
w: pre- sence,|what will it be? *||
w: |||
w: |||
V:2
 x2 | x8 | x6 B,D | x8 | x8 | x8 | x8 | x5 G3 | x8 || x4 d4 | x8 | x8 | x8 | x8 | x4 D2 | x2 | %16
w: ||rain- bow|||||it|||||||||
w: ||sweet- est|||||it||be?|||||His||
w: ||Lord, un-|||||it|||||||||
w: ||Him in|||||it|||||||||
 x5 G3 | x8 |] %18
w: ||
w: ||
w: ||
w: ||
V:3
 [G,,G,][G,,G,] | [G,,G,]>[G,,G,] [G,,G,][G,,G,] [G,,G,][G,,G,][G,,G,][B,,G,] | %2
 [C,C]>[C,C] [C,C][C,G,] [G,,G,][G,,G,]B,,D, | [G,,G,][G,,G,][B,,G,][D,F,] G,G,[F,A,]G, | %4
 [D,F,]6 [D,F,][D,F,] | [G,,G,]>[G,,G,] [B,,G,][D,F,] G,G,G,[B,,G,] | %6
 [C,C]>[C,C] [C,C][C,G,] [G,,G,][G,,G,][G,,B,][G,,D] | [G,B,]2 [G,B,]>[G,C] [G,B,] [B,,D]3 | %8
 [D,D]2 [D,C]>[D,C] [G,,B,]4 || [G,B,]2 [G,D]>[G,D] ([G,B,]2 [B,,G,]2) | %10
 [C,C]2 [C,G,]>[C,G,] [C,C]2 [C,C][C,G,] | [G,,G,][G,,G,][B,,G,][D,F,] G,G,[F,A,]G, | %12
 (z4 D,C,B,,A,,) | [G,,G,B,][G,,G,][G,,G,C][G,,G,B,] [G,D]4 | [C,C][C,C][C,G,][E,C] [G,B,]2 | %15
 [G,,B,][G,,D] | [G,B,]2 [G,B,]>[G,C] [G,B,] [B,,D]3 | [D,D]2 [D,C]>[D,C] [G,,B,]4 |] %18
V:4
 x2 | x8 | x6 B,,D, | x4 G,G,G, x | x8 | x4 G,G,G, x | x8 | x8 | x8 || x8 | x8 | x4 G,G,G, x | %12
 [D,F,]6 x2 | x8 | x6 | x2 | x8 | x8 |] %18

